svgs/copy.svg

<!-- Generated by IcoMoon.io -->
<svg version="1.1" xmlns="http://www.w3.org/2000/svg" width="1500" height="1500" viewBox="0 0 1500 1500">
<title>copy</title>
<path d="M784.093 136.323h-238.651v954.521l681.863 0.086v-511.397h-306.721c-75.204 0-136.49-60.867-136.49-136.102v-307.11zM920.583 443.162h282.382l-282.492-286.811c0.013 110.045 0.11 286.811 0.11 286.811zM1090.931 1430.716c0 37.548-30.681 68.029-67.888 68.082l-818.833 1.157c-37.493 0.053-67.888-30.243-67.888-68.080v-1091.001c0-37.654 30.343-68.175 68.372-68.175h204.372v-204.568c0-37.654 30.25-68.175 68.313-68.175h445.528c18.936 0 45.16 10.942 58.497 24.366l358.059 360.384c13.371 13.458 24.209 39.957 24.209 58.427v714.584c0 37.69-30.681 68.287-67.888 68.339l-204.858 0.289v204.375zM476.958 1227.208c-37.493 0.053-67.888-30.243-67.888-68.080v-750.060h-135.69l-0.637 954.608h681.817v-137.142l-477.602 0.674z"></path>
</svg>

<svg xmlns="http://www.w3.org/2000/svg" width="1500" height="1500" viewBox="0 0 1500 1500"><path d="M784.093 136.323H545.442v954.521l681.863.086V579.533H920.584c-75.204 0-136.49-60.867-136.49-136.102v-307.11zm136.49 306.839h282.382L920.473 156.351c.013 110.045.11 286.811.11 286.811zm170.348 987.554c0 37.548-30.681 68.029-67.888 68.082l-818.833 1.157c-37.493.053-67.888-30.243-67.888-68.08V340.874c0-37.654 30.343-68.175 68.372-68.175h204.372V68.131c0-37.654 30.25-68.175 68.313-68.175h445.528c18.936 0 45.16 10.942 58.497 24.366l358.059 360.384c13.371 13.458 24.209 39.957 24.209 58.427v714.584c0 37.69-30.681 68.287-67.888 68.339l-204.858.289v204.375zm-613.973-203.508c-37.493.053-67.888-30.243-67.888-68.08v-750.06H273.38l-.637 954.608H954.56v-137.142l-477.602.674z"/></svg>
